X:254
%%etbk:tnset id:77,pos:4,rep:3x,ant:
%%etbk:wsite http://www.thesession.org/tunes/display/926
%%etbk:pldat 2016-07-29T16:06,2016-07-26T17:23,2015-07-19T14:20,2015-03-24T16:19,2015-01-24T12:50,2014-12-27T14:44,2014-12-20T14:42,2014-12-11T18:56,2014-09-11T19:09,2014-05-19T18:11,2014-05-14T16:39,2014-04-07T19:15,2014-03-25T16:34,2014-02-12T18:35,2014-02-11T19:21,2013-12-11T16:23,2013-11-27T18:30,2013-10-21T18:33,2013-10-05T15:10,2013-09-02T18:56,2013-05-06T18:40
T: Hag's Purse, The
Z: Piano Box Version by Martin Fleischmann
H: Created 2013-02-19 /  Last Modified 2013-02-19
M: 6/8
L: 1/8
R: jig
K: Dmix
|:"D"!5!A2D !3!FED | !3!A2B !5!c!3!A!2!F | "C"!4!G2!2!E !2!ED!2!E | !4!c2d !4!c!2!A!1!G |
"D"!5!A2D !3!FED | !3!A2B !5!c!3!A!2!F | "C"!4!G!2!EE !5!c!2!EE | "D"!1!DED !1!D3:|
|:"D"!3!d2e !5!=fed | !4!eed !2!c!1!A!3!F | "C"!4!G2E !2!EDE | !4!c2d !4!c!2!A!1!G |
"D"!3!d2e !5!=fed | !4!eed !2!c!1!A!3!F | "C"!4!G!2!EE !5!c!2!EE | "D"!1!DED !1!D3:|


